icons/number-16.svg

<svg xmlns="http://www.w3.org/2000/svg" width="16" height="16" viewBox="0 0 16 16"><path d="M9 4.75A.75.75 0 019.75 4h4a.75.75 0 01.53 1.28l-1.89 1.892c.312.076.604.18.867.319.742.391 1.244 1.063 1.244 2.005 0 .653-.231 1.208-.629 1.627-.386.408-.894.653-1.408.777-1.01.243-2.225.063-3.124-.527a.751.751 0 01.822-1.254c.534.35 1.32.474 1.951.322.306-.073.53-.201.67-.349.129-.136.218-.32.218-.596 0-.308-.123-.509-.444-.678-.373-.197-.98-.318-1.806-.318a.75.75 0 01-.53-1.28l1.72-1.72H9.75A.75.75 0 019 4.75zm-3.587 5.763c-.35-.05-.77.113-.983.572a.75.75 0 11-1.36-.632c.508-1.094 1.589-1.565 2.558-1.425 1 .145 1.872.945 1.872 2.222 0 1.433-1.088 2.192-1.79 2.681-.308.216-.571.397-.772.573H7a.75.75 0 010 1.5H3.75a.75.75 0 01-.75-.75c0-.69.3-1.211.67-1.61.348-.372.8-.676 1.15-.92.8-.56 1.18-.904 1.18-1.474 0-.473-.267-.69-.587-.737zM5.604.089A.75.75 0 016 .75v4.77h.711a.75.75 0 010 1.5H3.759a.75.75 0 010-1.5H4.5V2.15l-.334.223a.75.75 0 01-.832-1.248l1.5-1a.75.75 0 01.77-.037z"/></svg>

<svg xmlns="http://www.w3.org/2000/svg" width="16" height="16" viewBox="0 0 16 16">
  <defs/>
  <path d="M9,4.75 C9,4.336 9.336,4 9.75,4 L13.75,4 C14.053,4 14.326,4.183 14.442,4.463 C14.558,4.743 14.494,5.066 14.28,5.28 L12.39,7.172 C12.702,7.248 12.994,7.352 13.257,7.491 C13.999,7.882 14.501,8.554 14.501,9.496 C14.501,10.149 14.27,10.704 13.872,11.123 C13.486,11.531 12.978,11.776 12.464,11.9 C11.454,12.143 10.239,11.963 9.34,11.373 C9.007,11.141 8.919,10.686 9.141,10.346 C9.364,10.007 9.816,9.906 10.162,10.119 C10.696,10.469 11.482,10.593 12.113,10.441 C12.419,10.368 12.643,10.24 12.783,10.092 C12.912,9.956 13.001,9.772 13.001,9.496 C13.001,9.188 12.878,8.987 12.557,8.818 C12.184,8.621 11.577,8.5 10.751,8.5 C10.448,8.5 10.175,8.317 10.059,8.037 C9.943,7.757 10.007,7.434 10.221,7.22 L11.941,5.5 L9.75,5.5 C9.336,5.5 9,5.164 9,4.75 Z M5.413,10.513 C5.063,10.463 4.643,10.626 4.43,11.085 C4.321,11.334 4.085,11.504 3.815,11.53 C3.545,11.556 3.281,11.433 3.127,11.21 C2.972,10.986 2.95,10.697 3.07,10.453 C3.578,9.359 4.659,8.888 5.628,9.028 C6.628,9.173 7.5,9.973 7.5,11.25 C7.5,12.683 6.412,13.442 5.71,13.931 C5.402,14.147 5.139,14.328 4.938,14.504 L7,14.504 C7.414,14.504 7.75,14.84 7.75,15.254 C7.75,15.668 7.414,16.004 7,16.004 L3.75,16.004 C3.336,16.004 3,15.668 3,15.254 C3,14.564 3.3,14.043 3.67,13.644 C4.018,13.272 4.47,12.968 4.82,12.724 C5.62,12.164 6,11.82 6,11.25 C6,10.777 5.733,10.56 5.413,10.513 Z M5.604,0.089 C5.848,0.219 6,0.474 6,0.75 L6,5.52 L6.711,5.52 C7.125,5.52 7.461,5.856 7.461,6.27 C7.461,6.684 7.125,7.02 6.711,7.02 L3.759,7.02 C3.345,7.02 3.009,6.684 3.009,6.27 C3.009,5.856 3.345,5.52 3.759,5.52 L4.5,5.52 L4.5,2.15 L4.166,2.373 C3.822,2.597 3.361,2.502 3.133,2.16 C2.905,1.818 2.995,1.357 3.334,1.125 L4.834,0.125 C5.064,-0.028 5.36,-0.043 5.604,0.088 Z"/>
</svg>
